!!!COM:	Compere, Loyset
!!!CDT:	~1445///-1518/08/16
!!!OTL:	Ne vous hastez pas en malheure
!!!AGN:	Song; Chanson
!!!SCT:	Com3027
!!!SCA:	Com3027
!!!voices:	3
**kern	**kern	**kern
*staff3	*staff2	*staff1
*Ivox	*Ivox	*Ivox
*I"Contratenor	*I"Tenor	*I"Superius
*I'Ct	*I'T	*I'S
*clefGv2	*clefGv2	*clefG2
*k[]	*k[]	*k[]
*M2/1	*M2/1	*M2/1
*met(C|)	*met(C|)	*met(C|)
=1-	=1-	=1-
1d	1G	0r
1d	1G	.
=2	=2	=2
1d	1G	1g
1e	[1c	1g
=3	=3	=3
2e	1c]	1g
2.e	.	.
.	1c	[1cc
4d	.	.
4c	.	.
4B	.	.
=4	=4	=4
1A	1e	1cc]
1c	1e	1cc
=5	=5	=5
2G	0d	1b
2D	.	.
1F	.	1a
=6	=6	=6
2E	0e	2.g
2.c	.	.
.	.	4a
.	.	4b
4c	.	4cc
2G	.	[2b
=7	=7	=7
1A	2c	4b]
.	.	4a
.	4B	1a
.	4A	.
1E	1B	.
.	.	2g#i
=8	=8	=8
2r	2.A	0a
2.A	.	.
.	4B	.
.	2c	.
4G	.	.
4F	[2d	.
4E	.	.
=9	=9	=9
1D	2d]	1r
.	4c	.
.	4B	.
1C	2A	[1e
.	[2G	.
=10	=10	=10
2r	2G]	2e]
2C	1c	4d
.	.	4c
2F	.	1d
2G	2B	.
=11	=11	=11
2A	0c	1c
4G	.	.
4F	.	.
2E	.	1g
2e	.	.
=12	=12	=12
2c	1r	1a
1d	.	.
.	1G	1b
4c	.	.
4B	.	.
=13	=13	=13
2A	1A	1cc
2c	.	.
1G	1B	1dd
=14	=14	=14
2A	0c	2cc
4G	.	4b
4F	.	4a
2E	.	2.g
2C	.	.
.	.	4a
=15	=15	=15
0G	0d	2b
.	.	1cc
.	.	2b
=16	=16	=16
2.A	0c	1cc
4B	.	.
2c	.	4cc
.	.	4b
[2F	.	4a
.	.	4g
=17	=17	=17
2F]	1r	2a
!	!LO:TX:Z=8:t=[s.c.]	!
4E	.	4g
4D	.	4f
!LO:TX:Z=8:t=[s.c.]	!	!LO:TX:Z=8:t=[s.c.]
1C	1c	[1e
=18	=18	=18
2r	4c	1e]
.	4B	.
1c	4A	.
.	4G	.
.	2A	1r
2d	4G	.
.	4F	.
=19	=19	=19
2e	0E	[0g
4d	.	.
4c	.	.
2B	.	.
[2c	.	.
=20	=20	=20
2c]	2r	1g]
2B	2G	.
2c	2.A	1f
[2A	.	.
.	4B	.
=21	=21	=21
4A]	2c	2e
4G	.	.
4F	2.d	2.f
4E	.	.
1D	.	.
.	4c	4e
.	4B	4d
.	4A	4c
=22	=22	=22
2E	2G	2g
2F	1c	4f
.	.	4e
1G	.	1d
.	2B	.
=23	=23	=23
2C	[0c	0c
2.F	.	.
4G	.	.
[2A	.	.
=24	=24	=24
2A]	0c]	1r
4G	.	.
4F	.	.
1E	.	1g
=25	=25	=25
2D	1r	1a
2C	.	.
1F	1c	1a
=26	=26	=26
1E	1e	2g
.	.	4a
.	.	4b
1C	1e	1cc
=27	=27	=27
2G	1.d	2b
4D	.	2.a
4E	.	.
4F	.	.
4G	.	8gL
.	.	8fJ
2A	2c	2e
=28	=28	=28
2D	2B	2d
2E	4A	1g
.	4G	.
1D	1A	.
.	.	2f#i
=29	=29	=29
1r	0G	[0g
1G	.	.
=30	=30	=30
1G	1r	0g]
1E	1G	.
=31	=31	=31
1C	1G	1r
2r	1E	1g
[2G	.	.
=32	=32	=32
2G]	1C	1g
1c	.	.
.	2r	1e
2B	2G	.
=33	=33	=33
2A	2A	1c
4G	1c	.
4F	.	.
1E	.	2r
.	2B	2g
=34	=34	=34
1F	2A	2a
.	4G	1cc
.	4F	.
2.G	1E	.
.	.	2b
4F	.	.
=35	=35	=35
1D	1F	2a
.	.	4g
.	.	4f
1C	1G	[1e
=36	=36	=36
2r	2E	1e]
2c	2C	.
2A	1D	1f
2d	.	.
=37	=37	=37
2.e	2C	1g
.	2G	.
4d	.	.
4c	4A	2e
4B	4G	.
2A	[2c	2c
=38	=38	=38
1G	2c]	1d
.	2B	.
2r	[1c	1c
[2C	.	.
=39	=39	=39
4C]	1c]	2r
4D	.	.
4E	.	2.c
4F	.	.
2E	2r	.
.	.	4d
2C	[2G	4e
.	.	4f
=40	=40	=40
2.G	4G]	2e
.	4A	.
.	4B	2.d
4A	4c	.
2B	2B	.
.	.	4e
2c	[2A	4f
.	.	4g
=41	=41	=41
2r	4A]	2f
.	4B	.
2.C	4c	2.e
.	4d	.
.	2c	.
4D	.	4f
4E	[2B	4g
4F	.	4a
=42	=42	=42
2E	4B]	2g
.	4c	.
2.D	4d	2.f
.	4e	.
.	2d	.
4E	.	4g
4F	[2c	4a
4G	.	4b-i
=43	=43	=43
2F	4c]	2a
.	4d	.
2.E	4e	2.g
.	4f	.
.	2e	.
4F	.	4a
4G	[2d	4b
4A	.	4cc
=44	=44	=44
2G	4d]	2b
.	4e	.
2.F	4f	2.a
.	4g	.
.	2f	.
4G	.	4b
4A	[2e	4cc
4B-i	.	4dd
=45	=45	=45
2A	4e]	2cc
.	4f	.
2.G	4g	2.b
.	4a	.
.	2g	.
4A	.	4cc
4B	[2f	4dd
4c	.	4ee
=46	=46	=46
4d	2f]	2dd
4D	.	.
2E	2e	1cc
2F	1d	.
2G	.	2b
=47	=47	=47
0Cl	0cl	0ccl
==	==	==
*-	*-	*-
!!!RDF**kern: l=long note in original notation
!!!RDF**kern: i=editorial accidental
!!!ENC:	Megan K. Eagen 2013/12/18
!!!END:	2013/12/18/
!!!EED:	Jesse Rodin
!!!EEV:	2014/02/23/
!!!ONB:	Translated from MusicXML and edited on 2014/02/23/ by Craig Sapp
!!muse2ps: C^@{COM}^i2I150v95,95,150Q16
